icons/Color/scalable/media-floppy.svg

<svg height="16" viewBox="0 0 16 16" width="16" xmlns="http://www.w3.org/2000/svg"><g transform="matrix(.38078590859 0 0 .39127166071 -1.13997342684 -1.20023251602)"><path d="m4.5577604 3.5675797h38.8903026c.589294 0 1.063708.4744141 1.063708 1.0637086v37.7652107c0 .589294-.474414 1.063708-1.063708 1.063708h-36.8903026s-3.0637085-3.063708-3.0637085-3.063708v-35.7652107c0-.5892945.474414-1.0637086 1.0637085-1.0637086z" fill="#3465a4" stroke="#25375f" stroke-linecap="round" stroke-linejoin="round"/><path d="m8.246032 8.179055h31.513771v17.890383h-31.513771z" fill="#fff"/><rect fill="#d31c00" height="5.111538" rx=".132576" ry=".161279" width="31.513771" x="8.246032" y="4.089825"/><rect height="2" opacity=".738636" rx=".126208" width="2" x="6" y="6"/><path d="m4.6189226 4.5276647h38.7684814c.06992 0 .126208.056289.126208.1262077v37.6482386c0 .06992-.05629.126208-.126208.126208h-36.4591222s-2.4355669-2.391373-2.4355669-2.391373v-35.3830736c0-.069919.056289-.1262077.1262077-.1262077z" fill="none" opacity=".596591" stroke-linecap="round"/><g stroke="#525252"><path d="m14.255326 29.113111h19.495182c.876522 0 1.58217.724355 1.58217 1.624113v12.734696h-22.659522v-12.734696c0-.899758.705648-1.624113 1.58217-1.624113z" fill="#d3d7cf" stroke-width=".975806"/><rect fill="#4967a2" height="9.327216" rx=".650645" ry=".696076" stroke-width=".89586" width="4.356435" x="16.572403" y="31.628906"/></g></g></svg>

<?xml version="1.0" encoding="UTF-8" standalone="no"?>
<svg
   xmlns:dc="http://purl.org/dc/elements/1.1/"
   xmlns:cc="http://creativecommons.org/ns#"
   xmlns:rdf="http://www.w3.org/1999/02/22-rdf-syntax-ns#"
   xmlns:svg="http://www.w3.org/2000/svg"
   xmlns="http://www.w3.org/2000/svg"
   xmlns:sodipodi="http://sodipodi.sourceforge.net/DTD/sodipodi-0.dtd"
   xmlns:inkscape="http://www.inkscape.org/namespaces/inkscape"
   width="16"
   height="16"
   viewBox="0 0 16 16"
   id="svg30571"
   version="1.1"
   inkscape:version="0.92pre1 unknown"
   sodipodi:docname="gimp-floppy.svg">
  <defs
     id="defs30573" />
  <sodipodi:namedview
     id="base"
     pagecolor="#ffffff"
     bordercolor="#666666"
     borderopacity="1"
     inkscape:pageopacity="0"
     inkscape:pageshadow="2"
     inkscape:zoom="14.042194"
     inkscape:cx="8"
     inkscape:cy="8"
     inkscape:document-units="px"
     inkscape:current-layer="svg30571"
     showgrid="true"
     units="px"
     inkscape:snap-page="true"
     inkscape:snap-bbox="true"
     inkscape:bbox-paths="true"
     inkscape:bbox-nodes="true"
     inkscape:snap-bbox-edge-midpoints="true"
     inkscape:snap-bbox-midpoints="true"
     inkscape:object-paths="true"
     inkscape:snap-intersection-paths="true"
     inkscape:object-nodes="true"
     inkscape:snap-smooth-nodes="true"
     inkscape:snap-midpoints="true"
     inkscape:snap-object-midpoints="true"
     inkscape:snap-center="true"
     inkscape:snap-text-baseline="true"
     showborder="false"
     inkscape:window-width="1920"
     inkscape:window-height="1016"
     inkscape:window-x="0"
     inkscape:window-y="27"
     inkscape:window-maximized="1"
     inkscape:snap-global="false"
     showguides="false">
    <inkscape:grid
       type="xygrid"
       id="grid4291" />
  </sodipodi:namedview>
  <metadata
     id="metadata30576">
    <rdf:RDF>
      <cc:Work
         rdf:about="">
        <dc:format>
          image/svg+xml
        </dc:format>
        <dc:type
           rdf:resource="http://purl.org/dc/dcmitype/StillImage" />
        <dc:creator>
          <cc:Agent>
            <dc:title>Klaus Staedtler       </dc:title>
          </cc:Agent>
        </dc:creator>
        <dc:title />
      </cc:Work>
    </rdf:RDF>
  </metadata>
  <g
     inkscape:label="Layer 1"
     inkscape:groupmode="layer"
     id="layer1"
     transform="translate(0,-1036.3622)">
    <g
       id="g4056">
      <g
         id="g3998"
         transform="matrix(1.0513727,0,0,1.0000079,-0.42042887,-0.00816417)">
        <g
           id="g3997"
           transform="matrix(1.1103359,0,0,1.1103359,-0.9653036,-114.34049)">
          <g
             transform="matrix(0.32618936,0,0,0.35238757,0.25300329,1035.2745)"
             id="g3972">
            <path
               inkscape:connector-curvature="0"
               style="fill:#3465a4;fill-opacity:1;stroke:#25375f;stroke-width:1.00000012;stroke-linecap:round;stroke-linejoin:round;stroke-miterlimit:4;stroke-dashoffset:0;stroke-opacity:1"
               d="M 4.5577604,3.5675797 H 43.448063 c 0.589294,0 1.063708,0.4744141 1.063708,1.0637086 V 42.396499 c 0,0.589294 -0.474414,1.063708 -1.063708,1.063708 H 6.5577604 c 0,0 -3.0637085,-3.063708 -3.0637085,-3.063708 V 4.6312883 c 0,-0.5892945 0.474414,-1.0637086 1.0637085,-1.0637086 z"
               id="rect2259"
               sodipodi:nodetypes="ccccccccc" />
            <rect
               style="opacity:1;fill:#ffffff;fill-opacity:1;stroke:none;stroke-width:0.90393138;stroke-linecap:butt;stroke-linejoin:miter;stroke-miterlimit:4;stroke-dasharray:none;stroke-dashoffset:0;stroke-opacity:1"
               id="rect2328"
               width="31.513771"
               height="17.890383"
               x="8.2460318"
               y="8.1790552" />
            <rect
               ry="0.16127887"
               rx="0.13257605"
               y="4.0898252"
               x="8.2460318"
               height="5.1115379"
               width="31.513771"
               id="rect2330"
               style="opacity:1;fill:#d31c00;fill-opacity:1;stroke:none;stroke-width:1.15860498;stroke-linecap:butt;stroke-linejoin:miter;stroke-miterlimit:4;stroke-dasharray:none;stroke-dashoffset:0;stroke-opacity:1" />
            <rect
               style="opacity:0.73863639;fill:#000000;fill-opacity:1;stroke:none;stroke-width:1;stroke-linecap:butt;stroke-linejoin:miter;stroke-miterlimit:4;stroke-dasharray:none;stroke-dashoffset:0;stroke-opacity:1"
               id="rect2332"
               width="2"
               height="2"
               x="6"
               y="6"
               rx="0.12620772"
               ry="0.12620771" />
            <path
               inkscape:connector-curvature="0"
               style="opacity:0.59659095;fill:none;fill-opacity:1;stroke:url(#linearGradient2283);stroke-width:1;stroke-linecap:round;stroke-linejoin:miter;stroke-miterlimit:4;stroke-dashoffset:0;stroke-opacity:1"
               d="M 4.6189226,4.5276647 H 43.387404 c 0.06992,0 0.126208,0.056289 0.126208,0.1262077 V 42.302111 c 0,0.06992 -0.05629,0.126208 -0.126208,0.126208 H 6.9282818 c 0,0 -2.4355669,-2.391373 -2.4355669,-2.391373 V 4.6538724 c 0,-0.069919 0.056289,-0.1262077 0.1262077,-0.1262077 z"
               id="rect2273"
               sodipodi:nodetypes="ccccccccc" />
            <path
               inkscape:connector-curvature="0"
               style="fill:#d3d7cf;fill-opacity:1;stroke:#525252;stroke-width:0.97580624;stroke-linecap:butt;stroke-linejoin:miter;stroke-miterlimit:4;stroke-dashoffset:0;stroke-opacity:1"
               d="m 14.255326,29.113111 h 19.495182 c 0.876522,0 1.58217,0.724355 1.58217,1.624113 V 43.47192 c 0,0 -22.659522,0 -22.659522,0 V 30.737224 c 0,-0.899758 0.705648,-1.624113 1.58217,-1.624113 z"
               id="rect2340"
               sodipodi:nodetypes="ccccccc" />
            <rect
               style="opacity:1;fill:#4967a2;fill-opacity:1;stroke:#525252;stroke-width:0.89586031;stroke-linecap:butt;stroke-linejoin:miter;stroke-miterlimit:4;stroke-dasharray:none;stroke-dashoffset:0;stroke-opacity:1"
               id="rect2359"
               width="4.3564348"
               height="9.3272161"
               x="16.572403"
               y="31.628906"
               rx="0.65064532"
               ry="0.69607556" />
          </g>
        </g>
      </g>
    </g>
  </g>
</svg>
